_site/images/verification-page/framework-icon.svg

<svg fill="none" height="30" viewBox="0 0 30 30" width="30" xmlns="http://www.w3.org/2000/svg"><rect fill="#ffc634" height="30" rx="7" width="30"/><g fill="#fff" stroke="#fff"><path d="m15.0225 21.1336c0 .012-.0026.0239-.0077.0345-.0055.0112-.0132.0213-.0224.029-.1196.0999-.2255.2134-.3147.3374-.0834.116-.0502.2731.0741.3509.0464.029.0988.0429.1508.0429.0873 0 .173-.0393.2253-.112.0641-.0891.1402-.1707.2261-.2425.0664-.0554.1187-.1223.1554-.1987.0361-.0751.0552-.1586.0552-.2415 0-.3267-.2848-.5924-.6349-.5924h-3.5522c-.1657 0-.3005-.1257-.3005-.2803v-3.292c0-.164-.0683-.3182-.1925-.434-.1244-.116-.2897-.1799-.4656-.1799-.1853 0-.3634.074-.48875.203-.25987.2671-.63023.4204-1.01614.4204-.3858 0-.74296-.1454-1.00558-.4092-.26245-.2636-.3911-.6077-.36239-.9688.05039-.63.59815-1.1364 1.27405-1.1781.4227-.026.82724.1264 1.10991.4175.06152.0636.1354.1138.2203.1495.1148.0481.2418.0642.3672.0467.319-.0444.5595-.3103.5595-.6187v-3.2803c0-.1546.1348-.2803.3005-.2803h3.529c.3629 0 .6581-.2754.6581-.614v-.0536c0-.1722-.0792-.33831-.2177-.45606-.2863-.24204-.4505-.5875-.4505-.94776 0-.35996.1558-.69313.4387-.93809.2826-.24472.6514-.36459 1.0385-.33767.6752.0467 1.2181.5577 1.2628 1.18852.0278.39414-.1354.77162-.4479 1.03571-.1381.11683-.2173.28275-.2173.45535v.0536c0 .3385.2952.6139.6581.6139h.8478c.1497 0 .2711-.1132.2711-.2528 0-.1397-.1213-.2529-.2711-.2529h-.8478c-.0639 0-.116-.0486-.116-.1082v-.0536c0-.0301.0143-.0595.0393-.0806.4358-.36836.6636-.89455.6248-1.44377-.0624-.88087-.8206-1.59433-1.7635-1.65953-.5391-.03763-1.0532.12985-1.4476.47131-.389.3368-.6121.81382-.6121 1.30874 0 .50272.2292.98475.6282 1.32205.0255.0217.0401.0515.0401.0818v.0536c0 .0597-.0521.1082-.116.1082h-3.529c-.4646 0-.8426.3526-.8426.786v3.2804c0 .0588-.0428.1109-.0975.1185-.023.0032-.0449.0006-.0645-.0076-.0157-.0066-.0294-.0158-.0407-.0276-.39484-.4066-.95873-.619-1.54771-.5829-.94385.0582-1.70867.7654-1.779 1.6452-.04001.5029.13956.9825.50572 1.3504.36104.3627.87237.5708 1.40284.5708.53848 0 1.05518-.2137 1.41765-.5864.0229-.0235.0547-.037.0872-.037.042 0 .0696.0199.0823.0318.0126.0117.0337.0373.0337.0764v3.292c0 .4334.378.786.8426.786h3.5522c.0512 0 .0928.0389.0928.0867z"/><path d="m21.3372 13.7677c.3834-.0771.6616-.3998.6616-.7675v-1.8646c0-.4334-.3779-.786-.8425-.786h-1.4201c-.1497 0-.271.1132-.271.2529 0 .1396.1213.2528.271.2528h1.4201c.1656 0 .3004.1258.3004.2803v1.8647c0 .131-.0983.2458-.2337.2731-1.0905.2191-1.8819 1.1345-1.8819 2.1765 0 1.0418.7914 1.957 1.8819 2.1761.1355.0273.2337.1421.2337.2731v2.3605c0 .1546-.1347.2803-.3004.2803h-3.5522c-.1695 0-.329.0616-.4489.1735-.12.1119-.1861.2607-.1861.4189 0 .1679.077.3285.2113.4408.2904.2427.457.5901.457.9533 0 .3548-.16.6969-.439.9384-.2825.2447-.651.3645-1.0382.3376-.6114-.0426-1.1214-.4653-1.2403-1.028-.0289-.137-.1715-.2262-.3184-.1992-.1468.027-.2425.16-.2135.297.1658.7852.878 1.3751 1.7319 1.4345.0497.0035.0992.0052.1484.0052.4843 0 .9409-.1665 1.2989-.4765.3891-.3369.6123-.814.6123-1.309 0-.5068-.2323-.9915-.6373-1.3299-.0197-.0164-.031-.0399-.031-.0642 0-.0312.0171-.0518.0273-.0612.0101-.0095.0322-.0255.0656-.0255h3.5522c.4646 0 .8425-.3526.8425-.786v-2.3605c0-.3676-.2782-.6904-.6617-.7675-.8425-.1692-1.4539-.8765-1.4539-1.6818s.6114-1.5128 1.454-1.6821z"/></g></svg>

<svg width="30" height="30" viewBox="0 0 30 30" fill="none" xmlns="http://www.w3.org/2000/svg">
<rect width="30" height="30" rx="7" fill="#FFC634"/>
<path d="M15.0225 21.1336C15.0225 21.1456 15.0199 21.1575 15.0148 21.1681C15.0093 21.1793 15.0016 21.1894 14.9924 21.1971C14.8728 21.297 14.7669 21.4105 14.6777 21.5345C14.5943 21.6505 14.6275 21.8076 14.7518 21.8854C14.7982 21.9144 14.8506 21.9283 14.9026 21.9283C14.9899 21.9283 15.0756 21.889 15.1279 21.8163C15.192 21.7272 15.2681 21.6456 15.354 21.5738C15.4204 21.5184 15.4727 21.4515 15.5094 21.3751C15.5455 21.3 15.5646 21.2165 15.5646 21.1336C15.5646 20.8069 15.2798 20.5412 14.9297 20.5412H11.3775C11.2118 20.5412 11.077 20.4155 11.077 20.2609V16.9689C11.077 16.8049 11.0087 16.6507 10.8845 16.5349C10.7601 16.4189 10.5948 16.355 10.4189 16.355C10.2336 16.355 10.0555 16.429 9.93015 16.558C9.67028 16.8251 9.29992 16.9784 8.91401 16.9784C8.52821 16.9784 8.17105 16.833 7.90843 16.5692C7.64598 16.3056 7.51733 15.9615 7.54604 15.6004C7.59643 14.9704 8.14419 14.464 8.82009 14.4223C9.24279 14.3963 9.64733 14.5487 9.93 14.8398C9.99152 14.9034 10.0654 14.9536 10.1503 14.9893C10.2651 15.0374 10.3921 15.0535 10.5175 15.036C10.8365 14.9916 11.077 14.7257 11.077 14.4173V11.137C11.077 10.9824 11.2118 10.8567 11.3775 10.8567H14.9065C15.2694 10.8567 15.5646 10.5813 15.5646 10.2427V10.1891C15.5646 10.0169 15.4854 9.85079 15.3469 9.73304C15.0606 9.491 14.8964 9.14554 14.8964 8.78528C14.8964 8.42532 15.0522 8.09215 15.3351 7.84719C15.6177 7.60247 15.9865 7.4826 16.3736 7.50952C17.0488 7.55622 17.5917 8.06722 17.6364 8.69804C17.6642 9.09218 17.501 9.46966 17.1885 9.73375C17.0504 9.85058 16.9712 10.0165 16.9712 10.1891V10.2427C16.9712 10.5812 17.2664 10.8566 17.6293 10.8566H18.4771C18.6268 10.8566 18.7482 10.7434 18.7482 10.6038C18.7482 10.4641 18.6269 10.3509 18.4771 10.3509H17.6293C17.5654 10.3509 17.5133 10.3023 17.5133 10.2427V10.1891C17.5133 10.159 17.5276 10.1296 17.5526 10.1085C17.9884 9.74014 18.2162 9.21395 18.1774 8.66473C18.115 7.78386 17.3568 7.0704 16.4139 7.0052C15.8748 6.96757 15.3607 7.13505 14.9663 7.47651C14.5773 7.81331 14.3542 8.29033 14.3542 8.78525C14.3542 9.28797 14.5834 9.77 14.9824 10.1073C15.0079 10.129 15.0225 10.1588 15.0225 10.1891V10.2427C15.0225 10.3024 14.9704 10.3509 14.9065 10.3509H11.3775C10.9129 10.3509 10.5349 10.7035 10.5349 11.1369V14.4173C10.5349 14.4761 10.4921 14.5282 10.4374 14.5358C10.4144 14.539 10.3925 14.5364 10.3729 14.5282C10.3572 14.5216 10.3435 14.5124 10.3322 14.5006C9.93736 14.094 9.37347 13.8816 8.78449 13.9177C7.84064 13.9759 7.07582 14.6831 7.00549 15.5629C6.96548 16.0658 7.14505 16.5454 7.51121 16.9133C7.87225 17.276 8.38358 17.4841 8.91405 17.4841C9.45253 17.4841 9.96923 17.2704 10.3317 16.8977C10.3546 16.8742 10.3864 16.8607 10.4189 16.8607C10.4609 16.8607 10.4885 16.8806 10.5012 16.8925C10.5138 16.9042 10.5349 16.9298 10.5349 16.9689V20.2609C10.5349 20.6943 10.9129 21.0469 11.3775 21.0469H14.9297C14.9809 21.0469 15.0225 21.0858 15.0225 21.1336Z" fill="white" stroke="white"/>
<path d="M21.3372 13.7677C21.7206 13.6906 21.9988 13.3679 21.9988 13.0002V11.1356C21.9988 10.7022 21.6209 10.3496 21.1563 10.3496H19.7362C19.5865 10.3496 19.4652 10.4628 19.4652 10.6025C19.4652 10.7421 19.5865 10.8553 19.7362 10.8553H21.1563C21.3219 10.8553 21.4567 10.9811 21.4567 11.1356V13.0003C21.4567 13.1313 21.3584 13.2461 21.223 13.2734C20.1325 13.4925 19.3411 14.4079 19.3411 15.4499C19.3411 16.4917 20.1325 17.4069 21.223 17.626C21.3585 17.6533 21.4567 17.7681 21.4567 17.8991V20.2596C21.4567 20.4142 21.322 20.5399 21.1563 20.5399H17.6041C17.4346 20.5399 17.2751 20.6015 17.1552 20.7134C17.0352 20.8253 16.9691 20.9741 16.9691 21.1323C16.9691 21.3002 17.0461 21.4608 17.1804 21.5731C17.4708 21.8158 17.6374 22.1632 17.6374 22.5264C17.6374 22.8812 17.4774 23.2233 17.1984 23.4648C16.9159 23.7095 16.5474 23.8293 16.1602 23.8024C15.5488 23.7598 15.0388 23.3371 14.9199 22.7744C14.891 22.6374 14.7484 22.5482 14.6015 22.5752C14.4547 22.6022 14.359 22.7352 14.388 22.8722C14.5538 23.6574 15.266 24.2473 16.1199 24.3067C16.1696 24.3102 16.2191 24.3119 16.2683 24.3119C16.7526 24.3119 17.2092 24.1454 17.5672 23.8354C17.9563 23.4985 18.1795 23.0214 18.1795 22.5264C18.1795 22.0196 17.9472 21.5349 17.5422 21.1965C17.5225 21.1801 17.5112 21.1566 17.5112 21.1323C17.5112 21.1011 17.5283 21.0805 17.5385 21.0711C17.5486 21.0616 17.5707 21.0456 17.6041 21.0456H21.1563C21.6209 21.0456 21.9988 20.693 21.9988 20.2596V17.8991C21.9988 17.5315 21.7206 17.2087 21.3371 17.1316C20.4946 16.9624 19.8832 16.2551 19.8832 15.4498C19.8832 14.6445 20.4946 13.937 21.3372 13.7677Z" fill="white" stroke="white"/>
</svg>
